X:234
T:Steirische Jodler und Taenze Nr. 1 - 48 (32.)
C:traditionell
A:Salzkammergut
S:MIDI erhalten von Christian Amon. Nach einer kopie im besitz von Johann Stoeckl eines manuscriptes. Stoeckl(zitiert von Amon): "diese sammlung wurde 1935 im hause der familie Hohenlohe-Schillingfuerst gefunden. Sie wurde von einem der beiden brueder Steinegger 1866 verfasst. Die originale sind im Ausseer Kammerhofmuseum".
M:3/4
L:1/8
K:G
V:1
d4 a2 |B4 g2 | F3 A d2 |B4 g2 |\
d4 a2 |B4 g2 | F3 A d2 |g4 z2 |*
V:2
a4 d2 |g4 B2 | A3 c a2 |g4 b2 |\
a4 d2 |g4 B2 | A3 c a2 |B4 z2 |*
W:transcriptions-anmerkung: im MIDI:
V:1
(3 d 4 -da4 -a | B3 ->B/ g3 -g/| F3 A d2 |(3 B 4 -Bg4 -g |\
d3 ->d/ a3 -a/|B4 g2 | F3 A d2 |g4 z2 |
